public/icons/MainLogoIcon.svg

<svg width="150" height="90" viewBox="0 0 150 90" fill="none" xmlns="http://www.w3.org/2000/svg">
<g id="Frame 193">
<g id="Group 1383">
<g id="Group 1364">
<path id="Vector" d="M93.9318 16.8066H93.8909C83.4437 16.8066 75 25.2503 75 35.6567V54.568C75 64.9744 83.4641 73.418 93.8909 73.418H93.9318C104.379 73.418 112.823 64.9744 112.823 54.568V35.6567C112.823 25.2503 104.359 16.8066 93.9318 16.8066Z" fill="white" stroke="#363636" stroke-width="3" stroke-miterlimit="10"/>
<path id="Vector_2" d="M87.6277 50.6645C92.3913 50.6645 96.2553 45.5942 96.2553 39.3381C96.2553 33.082 92.3913 28.0117 87.6277 28.0117C82.8641 28.0117 79 33.082 79 39.3381C79 45.5942 82.8641 50.6645 87.6277 50.6645Z" fill="#363636"/>
<path id="Vector_3" d="M93.7614 30.2988L96.7054 35.4509H90.7969L93.7409 30.2988H93.7614Z" fill="white"/>
<path id="Vector_4" d="M85.5875 69.9629H63.392C61.0624 69.9629 59.1562 71.6441 59.1562 73.699V84.627C59.1562 86.6819 61.0624 88.3631 63.392 88.3631H85.5875C87.9172 88.3631 89.8233 86.6819 89.8233 84.627V73.699C89.8233 71.6441 87.9172 69.9629 85.5875 69.9629Z" fill="#1F4172" stroke="#1F4172" stroke-miterlimit="10"/>
<path id="Vector_5" d="M56.1896 16.8066H56.1487C45.7015 16.8066 37.2578 25.2503 37.2578 35.6567V54.568C37.2578 64.9744 45.7219 73.418 56.1487 73.418H56.1896C66.6369 73.418 75.0805 64.9744 75.0805 54.568V35.6567C75.0805 25.2503 66.6164 16.8066 56.1896 16.8066Z" fill="white" stroke="#363636" stroke-width="3" stroke-miterlimit="10"/>
<path id="Vector_6" d="M49.5652 50.6645C54.3288 50.6645 58.1928 45.5942 58.1928 39.3381C58.1928 33.082 54.3288 28.0117 49.5652 28.0117C44.8015 28.0117 40.9375 33.082 40.9375 39.3381C40.9375 45.5942 44.8015 50.6645 49.5652 50.6645Z" fill="#363636"/>
<g id="Group">
<path id="Vector_7" d="M139.32 57.8366C105.423 54.9334 83.8126 61.1077 76.9022 63.5407C75.3484 64.0927 73.6515 64.0927 72.0977 63.5407C65.1874 61.1282 43.5774 54.9334 9.68005 57.8366C7.59469 58.0206 6 60.0037 6 62.3549V76.1755C6 77.7906 7.53335 78.772 9.06671 78.3835C9.27115 78.3222 9.4756 78.3017 9.68005 78.2813C43.5774 75.3781 65.1874 81.5525 72.0977 83.9854C73.6515 84.5374 75.3484 84.5374 76.9022 83.9854C83.8126 81.5729 105.423 75.3781 139.32 78.2813C139.34 78.2813 139.361 78.2813 139.381 78.2813C141.283 78.4857 143 77.1364 143 75.1941V62.3549C143 59.9833 141.405 58.0001 139.32 57.8366Z" fill="#1F4172" stroke="#1F4172" stroke-width="3"/>
<path id="Vector_8" d="M139.32 47.6139C105.423 44.7108 83.8126 50.8851 76.9022 53.318C75.3484 53.87 73.6515 53.87 72.0977 53.318C65.1874 50.9055 43.5774 44.7108 9.68005 47.6139C7.59469 47.7979 6 49.7811 6 52.1322V65.9528C6 67.568 7.53335 68.5493 9.06671 68.1609C9.27115 68.0995 9.4756 68.0791 9.68005 68.0586C43.5774 65.1555 65.1874 71.3298 72.0977 73.7627C73.6515 74.3147 75.3484 74.3147 76.9022 73.7627C83.8126 71.3502 105.423 65.1555 139.32 68.0586C139.34 68.0586 139.361 68.0586 139.381 68.0586C141.283 68.2631 143 66.9137 143 64.9715V52.1322C143 49.7606 141.405 47.7775 139.32 47.6139Z" fill="white" stroke="#1F4172" stroke-width="3"/>
</g>
<path id="Vector_9" d="M55.6989 30.2998L58.6429 35.4519H52.7344L55.6784 30.2998H55.6989Z" fill="white"/>
<path id="Vector_10" d="M6.01086 55.2112C13.4101 54.6032 19.7611 54.3834 24.7067 54.3119C34.4471 54.172 40.1587 54.6263 41.5866 54.7369C44.7617 54.9984 47.4183 55.3183 49.302 55.5724" stroke="#1F4172" stroke-width="3" stroke-linecap="round" stroke-linejoin="round"/>
<path id="Vector_11" d="M141.294 55.0433C133.895 54.4353 127.544 54.2154 122.598 54.1439C112.858 54.0041 107.146 54.4583 105.718 54.569C102.543 54.8305 99.8864 55.1503 98.0026 55.4044" stroke="#1F4172" stroke-width="3" stroke-linecap="round" stroke-linejoin="round"/>
<path id="Vector_12" d="M6.0625 61.1311C15.0991 60.3542 22.8476 60.211 28.8788 60.2724C40.7572 60.395 47.7084 61.3968 49.4462 61.6422C53.3102 62.2146 56.5405 62.8689 58.8303 63.38" stroke="#1F4172" stroke-width="3" stroke-linecap="round" stroke-linejoin="round"/>
<path id="Vector_13" d="M142.447 61.1311C133.411 60.3542 125.662 60.211 119.631 60.2724C107.753 60.395 100.802 61.3968 99.0638 61.6422C95.1998 62.2146 91.9695 62.8689 89.6797 63.38" stroke="#1F4172" stroke-width="3" stroke-linecap="round" stroke-linejoin="round"/>
</g>
</g>
</g>
</svg>

<svg width="150" height="90" fill="none" xmlns="http://www.w3.org/2000/svg"><path d="M93.932 16.807h-.041C83.444 16.807 75 25.25 75 35.657v18.911c0 10.406 8.464 18.85 18.89 18.85h.042c10.447 0 18.891-8.444 18.891-18.85V35.657c0-10.407-8.464-18.85-18.891-18.85Z" fill="#fff" stroke="#363636" stroke-width="3" stroke-miterlimit="10"/><path d="M87.628 50.664c4.763 0 8.627-5.07 8.627-11.326s-3.864-11.326-8.627-11.326c-4.764 0-8.628 5.07-8.628 11.326s3.864 11.326 8.628 11.326Z" fill="#363636"/><path d="m93.761 30.299 2.944 5.152h-5.908l2.944-5.152h.02Z" fill="#fff"/><path d="M85.588 69.963H63.392c-2.33 0-4.236 1.681-4.236 3.736v10.928c0 2.055 1.906 3.736 4.236 3.736h22.196c2.33 0 4.235-1.681 4.235-3.736V73.699c0-2.055-1.906-3.736-4.235-3.736Z" fill="#1F4172" stroke="#1F4172" stroke-miterlimit="10"/><path d="M56.19 16.807h-.041c-10.447 0-18.891 8.443-18.891 18.85v18.911c0 10.406 8.464 18.85 18.89 18.85h.042c10.447 0 18.89-8.444 18.89-18.85V35.657c0-10.407-8.464-18.85-18.89-18.85Z" fill="#fff" stroke="#363636" stroke-width="3" stroke-miterlimit="10"/><path d="M49.565 50.664c4.764 0 8.628-5.07 8.628-11.326s-3.864-11.326-8.628-11.326-8.627 5.07-8.627 11.326 3.863 11.326 8.627 11.326Z" fill="#363636"/><g stroke="#1F4172" stroke-width="3"><path d="M139.32 57.837c-33.897-2.904-55.507 3.27-62.418 5.704a7.177 7.177 0 0 1-4.804 0c-6.91-2.413-28.52-8.608-62.418-5.704C7.595 58.02 6 60.004 6 62.355v13.82c0 1.616 1.533 2.597 3.067 2.209.204-.062.409-.082.613-.103 33.897-2.903 55.507 3.271 62.418 5.704a7.177 7.177 0 0 0 4.804 0c6.91-2.412 28.521-8.607 62.418-5.704h.061c1.902.205 3.619-1.145 3.619-3.087v-12.84c0-2.37-1.595-4.354-3.68-4.517Z" fill="#1F4172"/><path d="M139.32 47.614c-33.897-2.903-55.507 3.271-62.418 5.704a7.177 7.177 0 0 1-4.804 0c-6.91-2.412-28.52-8.607-62.418-5.704C7.595 47.798 6 49.78 6 52.132v13.82c0 1.616 1.533 2.597 3.067 2.209.204-.061.409-.082.613-.102 33.897-2.903 55.507 3.27 62.418 5.704a7.177 7.177 0 0 0 4.804 0c6.91-2.413 28.521-8.608 62.418-5.704h.061c1.902.204 3.619-1.145 3.619-3.087v-12.84c0-2.371-1.595-4.354-3.68-4.518Z" fill="#fff"/></g><path d="m55.699 30.3 2.944 5.152h-5.909l2.944-5.152h.02Z" fill="#fff"/><path d="M6.01 55.211c7.4-.608 13.751-.828 18.697-.9 9.74-.139 15.452.315 16.88.426 3.175.261 5.831.581 7.715.835M141.294 55.043a276.708 276.708 0 0 0-18.696-.9c-9.74-.139-15.452.315-16.88.426-3.175.261-5.832.581-7.715.835M6.063 61.131a237.55 237.55 0 0 1 22.816-.859c11.878.123 18.83 1.125 20.567 1.37 3.864.573 7.095 1.227 9.384 1.738M142.447 61.131a237.54 237.54 0 0 0-22.816-.859c-11.878.123-18.829 1.125-20.567 1.37a132.149 132.149 0 0 0-9.384 1.738" stroke="#1F4172" stroke-width="3" stroke-linecap="round" stroke-linejoin="round"/></svg>
